svg/trash.svg

<svg xmlns="http://www.w3.org/2000/svg" viewBox="0 0 32 32" enable-background="new 0 0 32 32"><path d="M 15 4 C 14.477778 4 13.939531 4.1854695 13.5625 4.5625 C 13.185469 4.9395305 13 5.4777778 13 6 L 13 7 L 7 7 L 7 9 L 8 9 L 8 25 C 8 26.645455 9.3545455 28 11 28 L 23 28 C 24.645455 28 26 26.645455 26 25 L 26 9 L 27 9 L 27 7 L 21 7 L 21 6 C 21 5.4777778 20.814531 4.9395305 20.4375 4.5625 C 20.060469 4.1854695 19.522222 4 19 4 L 15 4 z M 15 6 L 19 6 L 19 7 L 15 7 L 15 6 z M 10 9 L 24 9 L 24 25 C 24 25.554545 23.554545 26 23 26 L 11 26 C 10.445455 26 10 25.554545 10 25 L 10 9 z M 12 12 L 12 23 L 14 23 L 14 12 L 12 12 z M 16 12 L 16 23 L 18 23 L 18 12 L 16 12 z M 20 12 L 20 23 L 22 23 L 22 12 L 20 12 z" color="#000" overflow="visible" enable-background="accumulate"/></svg>

<svg xmlns="http://www.w3.org/2000/svg" viewBox="0 0 32 32"><path style="text-indent:0;text-align:start;line-height:normal;text-transform:none;block-progression:tb;-inkscape-font-specification:Bitstream Vera Sans" d="M15 4c-.522 0-1.06.185-1.438.563C13.185 4.94 13 5.478 13 6v1H7v2h1v16c0 1.645 1.355 3 3 3h12c1.645 0 3-1.355 3-3V9h1V7h-6V6c0-.522-.185-1.06-.563-1.438C20.06 4.186 19.523 4 19 4h-4zm0 2h4v1h-4V6zm-5 3h14v16c0 .555-.445 1-1 1H11c-.555 0-1-.445-1-1V9zm2 3v11h2V12h-2zm4 0v11h2V12h-2zm4 0v11h2V12h-2z" color="#000" overflow="visible" font-family="Bitstream Vera Sans"/></svg>
